!!!COM:      Bach, Johann Sebastian
!!!CDT:      1685/03/31/-1750/07/28/
!!!OPR@@GER: Das wohltemperirte Clavier
!!!OVM@@GER: Band I
!!!OPR@ENG:  Well-Tempered Clavier
!!!OVM@ENG:  Book I
!!!OTL:      Prelude
!!!OKY:      C-sharp major
!!!ONM:      no. 3
!!!SCT:      BWV 848
!!!OMV:      1
**kern	**kern	**kern
*M3/8	*staff:13	*staff:14
*MM88	*MM88	*MM88
*	*clefF4	*clefG2
*	*k[f#c#g#d#a#e#b#]	*k[f#c#g#d#a#e#b#]
*	*C#:	*C#:
*	*M3/8	*M3/8
=1-	=1-	=1-
4.ryy	4C#	16ee#
.	.	16cc#
.	.	16g#
.	.	16cc#
.	8c#	16ee#
.	.	16cc#
=2	=2	=2
4.ryy	4D#	16ff#
.	.	16cc#
.	.	16ff#
.	.	16cc#
.	8c#	16ff#
.	.	16cc#
=3	=3	=3
4.ryy	4E#	16gg#
.	.	16cc#
.	.	16gg#
.	.	16cc#
.	8c#	16gg#
.	.	16cc#
=4	=4	=4
4.ryy	4F#	16aa#
.	.	16cc#
.	.	16aa#
.	.	16cc#
.	8c#	16aa#
.	.	16cc#
=5	=5	=5
4.ryy	4E#	16gg#
.	.	16cc#
.	.	16gg#
.	.	16cc#
.	8c#	16gg#
.	.	16cc#
=6	=6	=6
4.ryy	4D#	16ff#
.	.	16ee#
.	.	16dd#
.	.	16ee#
.	8B#	16ff#
.	.	16dd#
=7	=7	=7
4.ryy	4C#	16ee#
.	.	16dd#
.	.	16cc#
.	.	16dd#
.	[8c#	16ee#
.	.	16cc#
=8	=8	=8
*	*staff:11	*staff:12
4.ryy	8c#]	16dd#
.	.	16ee#
.	16B#	16dd#
.	16A#	16cc#
.	16G#	16b#
.	16A#	16a#
=9	=9	=9
4.ryy	16B#	4g#
.	16G#	.
.	16D#	.
.	16G#	.
.	16B#	8gg#
.	16G#	.
=10	=10	=10
4.ryy	16c#	4a#
.	16G#	.
.	16c#	.
.	16G#	.
.	16c#	8gg#
.	16G#	.
=11	=11	=11
4.ryy	16d#	4b#
.	16G#	.
.	16d#	.
.	16G#	.
.	16d#	8gg#
.	16G#	.
=12	=12	=12
4.ryy	16e#	4cc#
.	16G#	.
.	16e#	.
.	16G#	.
.	16e#	8gg#
.	16G#	.
=13	=13	=13
4.ryy	16d#	4b#
.	16G#	.
.	16d#	.
.	16G#	.
.	16d#	8gg#
.	16G#	.
=14	=14	=14
4.ryy	16c#	4a#
.	16B#	.
.	16A#	.
.	16B#	.
.	16c#	8ff##
.	16A#	.
=15	=15	=15
4.ryy	16B#	4g#
.	16A#	.
.	16G#	.
.	16A#	.
.	16B#	[8gg#
.	16G#	.
=16	=16	=16
4.ryy	16A#	8gg#]
.	16Bn	.
.	16A#	16ff#X
.	16G#	16ee#
.	16F#	16dd#
.	16E#	16ee#
=17	=17	=17
*	*staff:9	*staff:10
4.ryy	4D#	16ff#
.	.	16dd#
.	.	16a#
.	.	16dd#
.	8d#	16ff#
.	.	16dd#
=18	=18	=18
4.ryy	4E#	16gg#
.	.	16dd#
.	.	16gg#
.	.	16dd#
.	8d#	16gg#
.	.	16dd#
=19	=19	=19
4.ryy	4F#	16aa#
.	.	16dd#
.	.	16aa#
.	.	16dd#
.	8d#	16aa#
.	.	16dd#
=20	=20	=20
4.ryy	4G#	16bbn
.	.	16dd#
.	.	16bb
.	.	16dd#
.	8d#	16bb
.	.	16dd#
=21	=21	=21
4.ryy	4F#	16aa#
.	.	16dd#
.	.	16aa#
.	.	16dd#
.	8d#	16aa#
.	.	16dd#
=22	=22	=22
4.ryy	4E#	16gg#
.	.	16ff#
.	.	16ee#
.	.	16ff#
.	8c##	16gg#
.	.	16ee#
=23	=23	=23
4.ryy	4D#	16ff#
.	.	16ee#
.	.	16dd#
.	.	16ee#
.	[8d#	16ff#
.	.	16dd#
=24	=24	=24
4.ryy	8d#]	16ee#
.	.	16ff#
.	16c#X	16ee#
.	16B#	16dd#
.	16A#	16cc#
.	16B#	16b#
=25	=25	=25
*	*staff:7	*staff:8
4.ryy	16c#	4a#
.	16A#	.
.	16E#	.
.	16A#	.
.	16c#	8aa#
.	16A#	.
=26	=26	=26
4.ryy	16d#	4b#
.	16A#	.
.	16d#	.
.	16A#	.
.	16d#	8aa#
.	16A#	.
=27	=27	=27
4.ryy	16e#	4cc#
.	16A#	.
.	16e#	.
.	16A#	.
.	16e#	8aa#
.	16A#	.
=28	=28	=28
4.ryy	16f#	4dd#
.	16A#	.
.	16f#	.
.	16A#	.
.	16f#	8aa#
.	16A#	.
=29	=29	=29
4.ryy	16e#	4cc#
.	16A#	.
.	16e#	.
.	16A#	.
.	16e#	8aa#
.	16A#	.
=30	=30	=30
4.ryy	16d#	4b#
.	16c#	.
.	16B#	.
.	16c#	.
.	16d#	8gg##
.	16B#	.
=31	=31	=31
4.ryy	16c#	4a#
.	16B#	.
.	16A#	.
.	16B#	.
.	16c#	[8aa#
.	16A#	.
=32	=32	=32
4.ryy	16d##	8aa#]
.	16c##	.
.	16B#	8gg#X
.	16c##	.
.	16d##	8ff##
.	16B#	.
=33	=33	=33
*	*staff:5	*staff:6
4.ryy	16e#	8gg#
.	16d##	.
.	16e#	8g#
.	16f##	.
.	16e#	[8gg#
.	16d#X	.
=34	=34	=34
4.ryy	16c##	8gg#]
.	16B#	.
.	16A#	8ff#X
.	16B#	.
.	16c##	8ee#
.	16A#	.
=35	=35	=35
4.ryy	8d#	16ff#
.	.	16ee#
.	8D#	16dd#
.	.	16ee#
.	[8d#	16ff#
.	.	16dd#
=36	=36	=36
4.ryy	8d#]	16gg##
.	.	16ff##
.	8c#X	16ee#
.	.	16ff##
.	8B#	16gg##
.	.	16ee#
=37	=37	=37
4.ryy	8c#	16aa#
.	.	16gg##
.	8C#	16aa#
.	.	16bb#
.	[8c#	16aa#
.	.	16gg#X
=38	=38	=38
4.ryy	8c#]	16ff##
.	.	16ee#
.	8B#	16dd#
.	.	16ee#
.	8A#	16ff##
.	.	16dd#
=39	=39	=39
4.ryy	16B#	8gg#
.	16A#	.
.	16G#	8g#
.	16A#	.
.	16B#	[8gg#
.	16G#	.
=40	=40	=40
4.ryy	16c##	8gg#]
.	16B#	.
.	16A#	8ff#X
.	16B#	.
.	16c##	8ee#
.	16A#	.
=41	=41	=41
*	*staff:3	*staff:4
4.ryy	16d#	8ff#
.	16c##	.
.	16d#	8f#
.	16e#	.
.	16d#	[8ff#
.	16c#X	.
=42	=42	=42
4.ryy	16B#	8ff#]
.	16A#	.
.	16G#	8ee#
.	16A#	.
.	16B#	8dd#
.	16G#	.
=43	=43	=43
4.ryy	8c#	16ee#
.	.	16dd#
.	8C#	16cc#
.	.	16dd#
.	[8c#	16ee#
.	.	16cc#
=44	=44	=44
4.ryy	8c#]	16ff##
.	.	16ee#
.	8Bn	16dd#
.	.	16ee#
.	8A#	16ff##
.	.	16dd#
=45	=45	=45
4.ryy	8Bn	16gg#
.	.	16ff##
.	8BBn	16gg#
.	.	16aa#
.	[8B	16gg#
.	.	16ff#X
=46	=46	=46
4.ryy	8B]	16ee#
.	.	16dd#
.	8A#	16cc#
.	.	16dd#
.	8G#	16ee#
.	.	16cc#
=47	=47	=47
4.ryy	16A#	4f#
.	16F#	.
.	16C#	.
.	16F#	.
.	16A#	8ff#
.	16F#	.
=48	=48	=48
4.ryy	16Bn	4g#
.	16F#	.
.	16B	.
.	16F#	.
.	16B	8ff#
.	16F#	.
=49	=49	=49
*	*staff:1	*staff:2
4.ryy	16c#	4a#
.	16F#	.
.	16c#	.
.	16F#	.
.	16c#	8ff#
.	16F#	.
=50	=50	=50
4.ryy	16d#	4bn
.	16F#	.
.	16d#	.
.	16F#	.
.	16d#	8ff#
.	16F#	.
=51	=51	=51
4.ryy	16c#	4a#
.	16F#	.
.	16c#	.
.	16F#	.
.	16c#	8ff#
.	16F#	.
=52	=52	=52
4.ryy	16Bn	4g#
.	16A#	.
.	16G#	.
.	16A#	.
.	16B	8ee#
.	16G#	.
=53	=53	=53
4.ryy	16A#	4f#
.	16G#	.
.	16F#	.
.	16G#	.
.	16A#	[8ff#
.	16F#	.
=54	=54	=54
4.ryy	16G#	8ff#]
.	16A#	.
.	16G#	16ee#
.	16F#	16dd#
.	16E#	16cc#
.	16D#	16dd#
=55	=55	=55
4.ryy	4C#	16ee#
.	.	16cc#
.	.	16g#
.	.	16cc#
.	8c#	16ee#
.	.	16cc#
=56	=56	=56
4.ryy	4D#	16ff#
.	.	16cc#
.	.	16ff#
.	.	16cc#
.	8c#	16ff#
.	.	16cc#
=57	=57	=57
4.ryy	4E#	16gg#
.	.	16cc#
.	.	16gg#
.	.	16cc#
.	8c#	16gg#
.	.	16cc#
=58	=58	=58
*	*staff:11	*staff:12
4.ryy	4F#	16aa#
.	.	16cc#
.	.	16aa#
.	.	16cc#
.	8c#	16aa#
.	.	16cc#
=59	=59	=59
4.ryy	4E#	16gg#
.	.	16cc#
.	.	16gg#
.	.	16cc#
.	8c#	16gg#
.	.	16cc#
=60	=60	=60
4.ryy	4D#	16ff#
.	.	16ee#
.	.	16dd#
.	.	16ee#
.	8B#	16ff#
.	.	16dd#
=61	=61	=61
4.ryy	4C#	16ee#
.	.	16dd#
.	.	16cc#
.	.	16dd#
.	8c#	16ee#
.	.	16cc#
=62	=62	=62
4.ryy	8F#	16dd#
.	.	16ee#
.	8E#	16dd#
.	.	16cc#
.	8D#	16b#
.	.	16a#
=63	=63	=63
4.ryy	8G#	16b#
.	.	16g#
.	8f#	16r
.	.	16g#
.	8d#	16r
.	.	16g#
=64	=64	=64
4.ryy	8G#	16b#
.	.	16g#
.	8f#	16r
.	.	16g#
.	8d#	16r
.	.	16g#
=65	=65	=65
4.ryy	8G#	16cc#
.	.	16g#
.	8e#	16r
.	.	16g#
.	8c#	16r
.	.	16g#
=66	=66	=66
*	*staff:9	*staff:10
4.ryy	8G#	16cc#
.	.	16g#
.	8e#	16r
.	.	16g#
.	8c#	16r
.	.	16g#
=67	=67	=67
4.ryy	8G#	16ff#
.	.	16g#
.	8d#	16r
.	.	16g#
.	8B#	16r
.	.	16g#
=68	=68	=68
4.ryy	8G#	16ff#
.	.	16g#
.	8d#	16r
.	.	16g#
.	8B#	16r
.	.	16g#
=69	=69	=69
4.ryy	8G#	16ee#
.	.	16g#
.	8e#	16r
.	.	16g#
.	8c#	16r
.	.	16g#
=70	=70	=70
4.ryy	8G#	16ee#
.	.	16g#
.	8e#	16r
.	.	16g#
.	8c#	16r
.	.	16g#
=71	=71	=71
4.ryy	8G#	16ff##
.	.	16a#
.	8en	16r
.	.	16a#
.	8c#	16r
.	.	16a#
=72	=72	=72
4.ryy	8G#	16ff##
.	.	16a#
.	8en	16r
.	.	16a#
.	8c#	16r
.	.	16a#
=73	=73	=73
4.ryy	8G#	16gg#
.	.	16b#
.	8d#	16r
.	.	16b#
.	8B#	16r
.	.	16b#
=74	=74	=74
*	*staff:7	*staff:8
4.ryy	8F#	16gg#
.	.	16b#
.	8d#	16r
.	.	16b#
.	8B#	16r
.	.	16b#
=75	=75	=75
4.ryy	8E#	16gg#
.	.	16cc#
.	8e#	16r
.	.	16g#
.	8c#	16r
.	.	16cc#
=76	=76	=76
4.ryy	8G#	16r
.	.	16ee#
.	8E#	16r
.	.	16gg#
.	8D#	16r
.	.	16aa#
=77	=77	=77
4.ryy	8C##	16bbn
.	.	16aa#
.	8E#	16gg#
.	.	16ff#
.	8A#	16ee#
.	.	16dd#
=78	=78	=78
4.ryy	8c##	16ee#
.	.	16ff#
.	8e#	16gg#
.	.	16bbn
.	8g#	16aa#
.	.	16gg#
=79	=79	=79
4.ryy	8f#	16aa#
.	.	16dd#
.	8d#	16r
.	.	16f#
.	8A#	16r
.	.	16a#
=80	=80	=80
4.ryy	8F#	16r
.	.	16dd#
.	8D#	16r
.	.	16ff#
.	8C#	16r
.	.	16gg#
=81	=81	=81
4.ryy	8BB#	16aan
.	.	16gg#
.	8D#	16ff#
.	.	16een
.	8G#	16dd#
.	.	16cc#
=82	=82	=82
*	*staff:5	*staff:6
4.ryy	8B#	16dd#
.	.	16een
.	8d#	16ff#
.	.	16aan
.	8f#	16gg#
.	.	16ff#
=83	=83	=83
4.ryy	8en	16gg#
.	.	16cc#
.	8c#	16r
.	.	16een
.	8An	16r
.	.	16cc#
=84	=84	=84
4.ryy	8F#	16r
.	.	16an
.	8d#	16r
.	.	16f#
.	8B#	16r
.	.	16dd#
=85	=85	=85
4.ryy	8En	16r
.	.	16g#
.	8c#	16r
.	.	16en
.	8An	16r
.	.	16cc#
=86	=86	=86
4.ryy	8F#	16r
.	.	16an
.	8D#	16r
.	.	16f#
.	8BB#	16r
.	.	16d#
=87	=87	=87
4.ryy	8GG#	16B#
.	.	16G#
.	8F#	16r
.	.	16G#
.	8D#	16r
.	.	16G#
=88	=88	=88
4.ryy	8GG#	16B#
.	.	16G#
.	8F#	16r
.	.	16G#
.	8D#	16r
.	.	16G#
=89	=89	=89
*	*staff:3	*staff:4
4.ryy	8GG#	16c#
.	.	16G#
.	8E#	16r
.	.	16G#
.	8C#	16r
.	.	16G#
=90	=90	=90
4.ryy	8GG#	16c#
.	.	16G#
.	8E#	16r
.	.	16G#
.	8C#	16r
.	.	16G#
=91	=91	=91
4.ryy	8GG#	16f#
.	.	16G#
.	8D#	16r
.	.	16G#
.	8BB#	16r
.	.	16G#
=92	=92	=92
4.ryy	8GG#	16f#
.	.	16G#
.	8D#	16r
.	.	16G#
.	8BB#	16r
.	.	16G#
=93	=93	=93
4.ryy	8GG#	16e#
.	.	16G#
.	8E#	16r
.	.	16G#
.	8C#	16r
.	.	16G#
=94	=94	=94
4.ryy	8GG#	16e#
.	.	16G#
.	8E#	16r
.	.	16G#
.	8C#	16r
.	.	16G#
=95	=95	=95
4.ryy	8GG#	16f##
.	.	16A#
.	8En	16r
.	.	16A#
.	8C#	16r
.	.	16A#
=96	=96	=96
*	*staff:1	*staff:2
4.ryy	8GG#	16f##
.	.	16A#
.	8En	16r
.	.	16A#
.	8C#	16r
.	.	16A#
=97	=97	=97
4.ryy	16GG#	4.ryy
.	16BB#	.
.	16D#	.
.	16F#	.
.	16An	.
.	16B#	.
=98	=98	=98
4.ryy	4.ryy	16c#
.	.	16en
.	.	16f##
.	.	16a#
.	.	16cc#
.	.	16een
=99	=99	=99
4.ryy	8GG#	16b#
.	.	16dd#
.	8r	16ff#
.	.	16dd#
.	8r	16b#
.	.	16g#
=100	=100	=100
4.ryy	4.ryy	16f#
.	.	16d#
.	.	16B#
.	.	16G#
.	.	16B#
.	.	16d#
=101	=101	=101
4.ryy	8G#	16e#
.	.	16g#
.	8r	16cc#
.	.	16g#
.	8r	16e#
.	.	16c#
=102	=102	=102
4.ryy	16A#	4.ryy
.	16F##	.
.	16En	.
.	16C#	.
.	16E	.
.	16F##	.
=103	=103	=103
*clefF4	*	*
*k[f#c#g#d#a#e#b#]	*	*
8r	4.GG#	8r
8C# 8E# 8G#	.	8e# 8g# 8cc#
8D# 8F# 8G#	.	8d# 8g# 8b#
=104	=104	=104
4.E# 4.G#	4.C#	4.c# 4.g# 4.cc#
==	==	==
*-	*-	*-
!!!AFR:  prelude
!!!EFL:  05/96
!!!END:  1994/01/08/
!!!VID:  2041284012 Bach, BWV 848-01
!!!AST:  Baroque
!!!OCY:  Deutschland
!!!ODT:  1722///
!!!PDT:  1801///
!!!EED:  Walter Hewlett
!!!ENC:  Walter Hewlett
!!!YOR:  Bach Gesellschaft Edition xiv
!!!AFT:  enhanced SCORE
!!!RDT:  2011/10/07/ by Andreas Kornstaedt using massScr2hmd
!!!SCA1: Thematisch-systematisches Verzeichnis der musikalischen Werke 
!!!SCA2: Johann Sebastian Bach: Bach-Werke-Verzeichnis (Schmieder)
!!!YEC1: Copyright 1994, 2000 Center for Computer Assisted Research 
!!!YEC2: in the Humanities
!!!YEM1: Rights to all derivative editions reserved.
!!!YEM2: Refer to licensing agreement for further details.
!!!YEN:  United States of America
!!!ref:  @{OTL}, @{SCT}
!!muse2ps: T^@{OTL} @{ONM} in @{OKY}^C^J.S. Bach\n@{SCT}-@{OMV}^
!!muse2ps: u^@{OPR@ENG}, @{OVM@ENG}^j
